X: 2026
T: Gallagher's Frolics
B: steve tunes
M:6/8
R: jig
Q: 3/8=60
K:Em
V:1 
|:"Em"~E>FE G>FE|B>cB  d>BA|~BcB B2A|GBG "D"AFD|
"Em"~E>FE G>FE|~B>cB d>BA|BAG "D"FEF| "Em"GEE E3:|
|:"Em"e2f g>fe|g2a b>ge|"D"~dfg afd|afd afd|
"Em"e2f g>fe|"D"dfe dBA|"Em"BAG "D"FEF| "Em"GE>E E3:|
% abcbook-tune_id 62a420d1921a5e4d6143ea68


% abcbook-boost 0
% abcbook-tablature 
% abcbook-transpose -2
% abcbook-lastupdated 1654963347317
% abcbook-soundfonts 
% abcbook-repeats 3
%%MIDI transpose                 -2


